Catalina-dark/actions/22/stroke-join-round.svg

<svg viewBox="0 0 22 22" xmlns="http://www.w3.org/2000/svg">
<defs>
<style id="current-color-scheme" type="text/css">.ColorScheme-Text {
        color:#dedede
      }</style>
</defs>
<path class="ColorScheme-Text" d="m7 3c-1.108 0-2 0.89199-2 2v2 3 9h1 3v-1-8-3h1 3 3 1v-1-2-1h-1-6-3zm4 6v1 9h1 3v-1-5h1 1v-1-2-1h-1-1-2-2z" fill="currentColor"/>
</svg>

<svg xmlns="http://www.w3.org/2000/svg" viewBox="0 0 22 22">
  <defs id="defs3051">
    <style type="text/css" id="current-color-scheme">
      .ColorScheme-Text {
        color:#f2f2f2
      }
      </style>
  </defs>
 <path 
     style="fill:currentColor;fill-opacity:1;stroke:none"      
	 class="ColorScheme-Text"
     d="M 7 3 C 5.8919918 3 5 3.8919918 5 5 L 5 7 L 5 10 L 5 19 L 6 19 L 9 19 L 9 18 L 9 10 L 9 7 L 10 7 L 13 7 L 16 7 L 17 7 L 17 6 L 17 4 L 17 3 L 16 3 L 10 3 L 7 3 z M 11 9 L 11 10 L 11 19 L 12 19 L 15 19 L 15 18 L 15 13 L 16 13 L 17 13 L 17 12 L 17 10 L 17 9 L 16 9 L 15 9 L 13 9 L 11 9 z "
     />
</svg>
